svg/task.svg

<svg xmlns="http://www.w3.org/2000/svg" viewBox="0 0 63 32" enable-background="new 0 0 63 32"><style type="text/css">.st0{fill:#343434;}</style><title>task</title><desc>Created with Sketch.</desc><path class="st0" d="M62 28h-30c-.6 0-1 .4-1 1v2c0 .6.4 1 1 1h30c.6 0 1-.4 1-1v-2c0-.6-.4-1-1-1zM62 14h-30c-.6 0-1 .4-1 1v2c0 .6.4 1 1 1h30c.6 0 1-.4 1-1v-2c0-.6-.4-1-1-1zM62 0h-30c-.6 0-1 .4-1 1v2c0 .6.4 1 1 1h30c.6 0 1-.4 1-1v-2c0-.6-.4-1-1-1zM26.2 3.2c-.4-.4-1-.4-1.4 0l-2.9 2.8h-19.9v3l-1.3 1.3c-.4.4-.4 1 0 1.4l1.3 1.3v13h20v-14.4l5.6-5.6c.4-.4.4-1 0-1.4l-1.4-1.4zm-7.3 5.8l-7.6 7.6-6.3-6.3v-1.3h13.9zm.1 14h-14v-7l5.6 5.6c.2.2.5.3.7.3.3 0 .5-.1.7-.3l7-7v8.4z"/></svg>

<?xml version="1.0" encoding="utf-8"?>
<!-- Generator: Adobe Illustrator 21.0.0, SVG Export Plug-In . SVG Version: 6.00 Build 0)  -->
<svg version="1.1" id="Layer_1" xmlns="http://www.w3.org/2000/svg" xmlns:xlink="http://www.w3.org/1999/xlink" x="0px" y="0px"
	 viewBox="0 0 63 32" style="enable-background:new 0 0 63 32;" xml:space="preserve">
<style type="text/css">
	.st0{fill:#343434;}
</style>
<title>task</title>
<desc>Created with Sketch.</desc>
<g>
	<path class="st0" d="M62,28H32c-0.6,0-1,0.4-1,1v2c0,0.6,0.4,1,1,1h30c0.6,0,1-0.4,1-1v-2C63,28.4,62.6,28,62,28z"/>
	<path class="st0" d="M62,14H32c-0.6,0-1,0.4-1,1v2c0,0.6,0.4,1,1,1h30c0.6,0,1-0.4,1-1v-2C63,14.4,62.6,14,62,14z"/>
	<path class="st0" d="M62,0H32c-0.6,0-1,0.4-1,1v2c0,0.6,0.4,1,1,1h30c0.6,0,1-0.4,1-1V1C63,0.4,62.6,0,62,0z"/>
	<path class="st0" d="M26.2,3.2c-0.4-0.4-1-0.4-1.4,0L21.9,6H2v3l-1.3,1.3c-0.4,0.4-0.4,1,0,1.4L2,13v13h20V11.6L27.6,6
		c0.4-0.4,0.4-1,0-1.4L26.2,3.2z M18.9,9l-7.6,7.6L5,10.3V9H18.9z M19,23H5v-7l5.6,5.6c0.2,0.2,0.5,0.3,0.7,0.3
		c0.3,0,0.5-0.1,0.7-0.3l7-7V23z"/>
</g>
</svg>
